img/Phone-Bold.svg

<svg width="32" height="32" viewBox="0 0 32 32" fill="none" xmlns="http://www.w3.org/2000/svg">
<path fill-rule="evenodd" clip-rule="evenodd" d="M21.1409 29.174C16.8832 27.9655 12.866 25.6851 9.51713 22.3362C6.16828 18.9874 3.88782 14.9701 2.67937 10.7125C2.67221 10.6872 2.6651 10.6622 2.65804 10.6374C2.46136 9.94538 2.30885 9.40875 2.30666 8.6729C2.30415 7.83187 2.57816 6.77821 2.99007 6.04495C3.69845 4.78393 5.21947 3.16786 6.53323 2.50336C7.66835 1.92922 9.00888 1.92922 10.144 2.50336C11.267 3.07136 12.5176 4.34278 13.2149 5.41512C14.0768 6.74091 14.0768 8.45007 13.2149 9.77585C12.9839 10.1311 12.6546 10.4598 12.2724 10.8414C12.1534 10.9602 12.0224 11.046 12.1094 11.2272C12.9732 13.0263 14.1511 14.7137 15.6454 16.208C17.1396 17.7022 18.8271 18.8802 20.6261 19.7439C20.8137 19.834 20.8876 19.7055 21.012 19.5809C21.3935 19.1987 21.7222 18.8695 22.0775 18.6385C23.4033 17.7765 25.1124 17.7765 26.4382 18.6385C27.4819 19.317 28.7864 20.5951 29.35 21.7093C29.9241 22.8445 29.9241 24.185 29.35 25.3201C28.6855 26.6339 27.0694 28.1549 25.8084 28.8633C25.0751 29.2752 24.0215 29.5492 23.1804 29.5467C22.4446 29.5445 21.908 29.392 21.216 29.1953C21.1911 29.1882 21.1661 29.1811 21.1409 29.174Z" fill="black"/>
</svg>

<svg xmlns="http://www.w3.org/2000/svg" width="32" height="32" fill="none"><path fill="#000" fill-rule="evenodd" d="M21.14 29.174a26.7 26.7 0 0 1-11.623-6.838 26.7 26.7 0 0 1-6.859-11.699c-.197-.692-.35-1.228-.351-1.964-.003-.841.271-1.895.683-2.628.708-1.261 2.23-2.877 3.543-3.542a4 4 0 0 1 3.611 0c1.123.568 2.374 1.84 3.07 2.912a4 4 0 0 1 0 4.36c-.23.356-.56.685-.942 1.066-.119.12-.25.205-.163.386a18.1 18.1 0 0 0 3.536 4.981 18.1 18.1 0 0 0 4.981 3.536c.188.09.262-.038.386-.163.381-.382.71-.712 1.066-.942a4 4 0 0 1 4.36 0c1.044.678 2.348 1.956 2.912 3.07a4 4 0 0 1 0 3.611c-.665 1.314-2.28 2.835-3.542 3.543-.733.412-1.787.686-2.628.684-.735-.003-1.272-.155-1.964-.352z" clip-rule="evenodd"/></svg>
